dist/assets/img/questions/6/answers/3_1200.svg

<svg width="540" height="230" viewBox="0 0 540 230" fill="none" xmlns="http://www.w3.org/2000/svg">
<g filter="url(#filter0_di_1419_51459)">
<path fill-rule="evenodd" clip-rule="evenodd" d="M66.7661 28C62.7174 28 59.3069 31.0248 58.8234 35.0446L40.0584 191.045C39.4854 195.807 43.204 200 48.0011 200H461.196C465.245 200 468.655 196.975 469.139 192.955L471.129 176.413C471.477 173.514 473.39 171.069 476.018 169.796C485.273 165.312 496.288 157.486 499.433 146.638C499.453 146.569 499.376 146.513 499.317 146.553C496.07 148.701 490.436 152.431 483.515 155.136C478.575 157.068 473.978 152.725 474.612 147.459L487.904 36.9554C488.477 32.1927 484.758 28 479.961 28H66.7661Z" fill="#FFF0CB"/>
</g>
<defs>
<filter id="filter0_di_1419_51459" x="0" y="0" width="539.436" height="252" filterUnits="userSpaceOnUse" color-interpolation-filters="sRGB">
<feFlood flood-opacity="0" result="BackgroundImageFix"/>
<feColorMatrix in="SourceAlpha" type="matrix" values="0 0 0 0 0 0 0 0 0 0 0 0 0 0 0 0 0 0 127 0" result="hardAlpha"/>
<feOffset dy="12"/>
<feGaussianBlur stdDeviation="20"/>
<feComposite in2="hardAlpha" operator="out"/>
<feColorMatrix type="matrix" values="0 0 0 0 1 0 0 0 0 1 0 0 0 0 1 0 0 0 1 0"/>
<feBlend mode="normal" in2="BackgroundImageFix" result="effect1_dropShadow_1419_51459"/>
<feBlend mode="normal" in="SourceGraphic" in2="effect1_dropShadow_1419_51459" result="shape"/>
<feColorMatrix in="SourceAlpha" type="matrix" values="0 0 0 0 0 0 0 0 0 0 0 0 0 0 0 0 0 0 127 0" result="hardAlpha"/>
<feOffset dy="-4"/>
<feGaussianBlur stdDeviation="4"/>
<feComposite in2="hardAlpha" operator="arithmetic" k2="-1" k3="1"/>
<feColorMatrix type="matrix" values="0 0 0 0 0.883659 0 0 0 0 0.635314 0 0 0 0 0.0558422 0 0 0 0.4 0"/>
<feBlend mode="normal" in2="shape" result="effect2_innerShadow_1419_51459"/>
</filter>
</defs>
</svg>

<svg width="540" height="230" viewBox="0 0 540 230" fill="none" xmlns="http://www.w3.org/2000/svg"><g filter="url(#filter0_di_1419_51459)"><path fill-rule="evenodd" clip-rule="evenodd" d="M66.766 28a8 8 0 00-7.943 7.045l-18.765 156c-.573 4.762 3.146 8.955 7.943 8.955h413.195a8 8 0 007.943-7.045l1.99-16.542c.348-2.899 2.261-5.344 4.889-6.617 9.255-4.484 20.27-12.31 23.415-23.158a.076.076 0 00-.116-.085c-3.247 2.148-8.881 5.878-15.802 8.583-4.94 1.932-9.537-2.411-8.903-7.677l13.292-110.504c.573-4.762-3.146-8.955-7.943-8.955H66.766z" fill="#FFF0CB"/></g><defs><filter id="filter0_di_1419_51459" x="0" y="0" width="539.436" height="252" filterUnits="userSpaceOnUse" color-interpolation-filters="sRGB"><feFlood flood-opacity="0" result="BackgroundImageFix"/><feColorMatrix in="SourceAlpha" values="0 0 0 0 0 0 0 0 0 0 0 0 0 0 0 0 0 0 127 0" result="hardAlpha"/><feOffset dy="12"/><feGaussianBlur stdDeviation="20"/><feComposite in2="hardAlpha" operator="out"/><feColorMatrix values="0 0 0 0 1 0 0 0 0 1 0 0 0 0 1 0 0 0 1 0"/><feBlend in2="BackgroundImageFix" result="effect1_dropShadow_1419_51459"/><feBlend in="SourceGraphic" in2="effect1_dropShadow_1419_51459" result="shape"/><feColorMatrix in="SourceAlpha" values="0 0 0 0 0 0 0 0 0 0 0 0 0 0 0 0 0 0 127 0" result="hardAlpha"/><feOffset dy="-4"/><feGaussianBlur stdDeviation="4"/><feComposite in2="hardAlpha" operator="arithmetic" k2="-1" k3="1"/><feColorMatrix values="0 0 0 0 0.883659 0 0 0 0 0.635314 0 0 0 0 0.0558422 0 0 0 0.4 0"/><feBlend in2="shape" result="effect2_innerShadow_1419_51459"/></filter></defs></svg>
